SVG_Azure_All/Network Watcher.svg

<?xml version="1.0" encoding="UTF-8" standalone="no"?>
<!-- Generated by Microsoft Visio, SVG Export Network Watcher.svg Page-1 -->

<svg
   xmlns:dc="http://purl.org/dc/elements/1.1/"
   xmlns:cc="http://creativecommons.org/ns#"
   xmlns:rdf="http://www.w3.org/1999/02/22-rdf-syntax-ns#"
   xmlns:svg="http://www.w3.org/2000/svg"
   xmlns="http://www.w3.org/2000/svg"
   xmlns:sodipodi="http://sodipodi.sourceforge.net/DTD/sodipodi-0.dtd"
   xmlns:inkscape="http://www.inkscape.org/namespaces/inkscape"
   width="0.77844101in"
   height="0.77864599in"
   viewBox="0 0 56.047607 56.062601"
   xml:space="preserve"
   class="st6"
   version="1.1"
   id="svg55"
   sodipodi:docname="Network Watcher.svg"
   style="font-size:12px;overflow:visible;color-interpolation-filters:sRGB;fill:none;fill-rule:evenodd;stroke-linecap:square;stroke-miterlimit:3"
   inkscape:version="0.92.5 (2060ec1f9f, 2020-04-08)"><metadata
   id="metadata59"><rdf:RDF><cc:Work
       rdf:about=""><dc:format>image/svg+xml</dc:format><dc:type
         rdf:resource="http://purl.org/dc/dcmitype/StillImage" /></cc:Work></rdf:RDF></metadata><sodipodi:namedview
   pagecolor="#ffffff"
   bordercolor="#666666"
   borderopacity="1"
   objecttolerance="10"
   gridtolerance="10"
   guidetolerance="10"
   inkscape:pageopacity="0"
   inkscape:pageshadow="2"
   inkscape:window-width="640"
   inkscape:window-height="480"
   id="namedview57"
   showgrid="false"
   inkscape:zoom="1.4169885"
   inkscape:cx="37.364246"
   inkscape:cy="36.808123"
   inkscape:window-x="0"
   inkscape:window-y="0"
   inkscape:window-maximized="0"
   inkscape:current-layer="svg55" />
	<style
   type="text/css"
   id="style2">
	<![CDATA[
		.st1 {fill:#198ab3;stroke:none;stroke-linecap:butt;stroke-width:34}
		.st2 {fill:url(#grad6-8);stroke:none;stroke-linecap:butt;stroke-width:34}
		.st3 {fill:#50e6ff;stroke:none;stroke-linecap:butt;stroke-width:34}
		.st4 {fill:#ffffff;stroke:none;stroke-linecap:butt;stroke-width:34}
		.st5 {fill:#76bc2d;stroke:none;stroke-linecap:butt;stroke-width:34}
		.st6 {fill:none;fill-rule:evenodd;font-size:12px;overflow:visible;stroke-linecap:square;stroke-miterlimit:3}
	]]>
	</style>

	<defs
   id="Patterns_And_Gradients">
		<radialGradient
   id="grad6-8"
   cx="40.58913"
   cy="84.676903"
   r="57.13574"
   gradientTransform="scale(1.0045993,0.9954218)"
   fx="40.58913"
   fy="84.676903"
   gradientUnits="userSpaceOnUse">
			<stop
   offset="0"
   stop-color="#5ea0ef"
   stop-opacity="1"
   id="stop4" />
			<stop
   offset="0.28"
   stop-color="#5b9fee"
   stop-opacity="1"
   id="stop6" />
			<stop
   offset="0.47"
   stop-color="#529bec"
   stop-opacity="1"
   id="stop8" />
			<stop
   offset="0.64"
   stop-color="#4394e7"
   stop-opacity="1"
   id="stop10" />
			<stop
   offset="0.79"
   stop-color="#2d8be1"
   stop-opacity="1"
   id="stop12" />
			<stop
   offset="0.93"
   stop-color="#117fd9"
   stop-opacity="1"
   id="stop14" />
			<stop
   offset="1"
   stop-color="#0078d4"
   stop-opacity="1"
   id="stop16" />
		</radialGradient>
	</defs>
	<g
   id="g53"
   transform="translate(-33.998031,-34.000035)">
		<title
   id="title20">Page-1</title>
		<g
   id="group2827-1"
   transform="translate(33.1306,-34.0157)">
			<title
   id="title22">Network Watcher</title>
			<g
   id="group2828-2">
				<title
   id="title24">Icon-networking-66</title>
				<g
   id="shape2829-3"
   transform="rotate(-45,1.6023133,121.1472)">
					<title
   id="title26">Sheet.2829</title>
					<path
   d="m 0,122.83 a 2.087,2.0779 -180 0 0 2.09,2.08 h 15.33 a 2.087,2.0779 -180 0 0 2.09,-2.08 v -0.26 a 2.087,2.0779 -180 0 0 -2.09,-2.08 H 2.09 A 2.087,2.0779 -180 0 0 0,122.57 Z"
   class="st1"
   id="path28"
   inkscape:connector-curvature="0"
   style="fill:#198ab3;stroke:none;stroke-width:34;stroke-linecap:butt" />
				</g>
				<g
   id="shape2830-5"
   transform="translate(16.1392,-16.2735)">
					<title
   id="title31">Sheet.2830</title>
					<path
   d="M 39.39,96.96 A 21.3333,21.2403 -180 0 0 36.9,92.51 20.6708,20.5807 -180 0 0 7.95,88.42 l -0.2,0.17 A 20.472,20.3828 -180 0 0 0.43,99.57 c 0,0.72 -0.33,1.45 -0.43,2.18 a 20.7039,20.6137 -180 0 0 6.26,18 6.92338,6.89321 -180 0 0 0.73,0.66 l 0.73,0.6 a 19.0807,18.9975 -180 0 0 3.11,1.98 l 0.33,0.19 0.57,0.23 0.46,0.24 0.5,0.19 0.53,0.2 0.46,0.17 0.66,0.19 h 0.37 l 0.96,0.27 1.06,0.23 h 0.26 a 6.29398,6.26655 -180 0 0 0.83,0 h 5.04 a 16.8944,16.8207 -180 0 0 2.51,-0.5 20.5383,20.4487 -180 0 0 7.33,-3.62 21.0683,20.9765 -180 0 0 3.74,-3.73 20.8033,20.7126 -180 0 0 2.95,-20.09 z M 34.58,93.9 h -4.04 a 19.6107,19.5253 -180 0 0 -2.91,-5.48 17.6894,17.6123 0 0 1 7.05,5.48 z M 21.63,87.3 a 10.8323,10.7851 0 0 1 5.96,6.6 h -5.96 z m 0,9.37 h 6.86 a 30.5755,30.4422 0 0 1 1.09,6.96 h -7.95 z m 0,9.59 h 7.95 a 30.5755,30.4422 0 0 1 -1.09,7 h -6.76 v -7.13 z M 11.3,101.55 a 28.9192,28.7932 0 0 1 0.92,-5.02 h 6.86 v 6.96 h -7.92 c 0.04,-0.66 0.07,-1.32 0.14,-1.94 z m 7.78,-14.38 v 6.59 h -5.93 a 10.6998,10.6531 0 0 1 5.93,-6.59 z m -9.71,3.49 a 19.3126,19.2284 0 0 1 3.65,-2.11 20.2732,20.1849 -180 0 0 -2.92,5.51 H 6.26 a 18.8157,18.7337 0 0 1 3.11,-3.4 z m -4.93,5.87 h 5.13 a 30.178,30.0465 -180 0 0 -0.79,4.42 c 0,0.83 -0.17,1.69 -0.17,2.54 H 2.45 a 21.3995,21.3063 0 0 1 0.5,-2.47 19.8757,19.7891 0 0 1 1.49,-4.49 z m -1.99,9.6 h 6.06 a 30.973,30.838 -180 0 0 1.06,6.99 H 4.44 a 17.7556,17.6783 0 0 1 -1.99,-6.99 z m 3.81,9.7 h 4.01 a 19.6107,19.5253 -180 0 0 2.91,5.47 17.59,17.5134 0 0 1 -6.92,-5.47 z m 12.89,6.6 a 10.6998,10.6531 0 0 1 -5.93,-6.6 h 5.93 z m 0,-9.37 h -6.93 a 30.6086,30.4752 0 0 1 -1.06,-6.99 h 7.92 v 7.05 z m 5.07,7.98 a 6.62524,6.59637 0 0 1 -2.42,1.39 v -6.6 h 5.96 a 14.708,14.6439 0 0 1 -3.61,5.28 z m 7.22,-2.14 a 17.1925,17.1176 0 0 1 -3.81,2.24 19.6107,19.5253 -180 0 0 2.91,-5.48 h 4.14 a 17.7225,17.6453 0 0 1 -3.24,3.24 z m 4.9,-5.87 h -4.97 a 35.2463,35.0927 -180 0 0 0.96,-7 h 6 a 17.4575,17.3814 0 0 1 -1.99,7.09 z m -4.01,-9.54 a 35.2463,35.0927 -180 0 0 -0.96,-6.96 h 5 a 18.3519,18.2719 0 0 1 1.99,6.96 z"
   class="st2"
   id="path33"
   inkscape:connector-curvature="0"
   style="fill:url(#grad6-8);stroke:none;stroke-width:34;stroke-linecap:butt" />
				</g>
				<g
   id="shape2831-9"
   transform="translate(6.89694,-9.16299)">
					<title
   id="title36">Sheet.2831</title>
					<ellipse
   cx="13.383"
   cy="111.588"
   rx="13.383"
   ry="13.3247"
   class="st3"
   id="ellipse38"
   style="fill:#50e6ff;stroke:none;stroke-width:34;stroke-linecap:butt" />
				</g>
				<g
   id="shape2832-11"
   transform="translate(9.7458,-12.2633)">
					<title
   id="title41">Sheet.2832</title>
					<ellipse
   cx="10.501"
   cy="114.457"
   rx="10.501"
   ry="10.4552"
   class="st4"
   id="ellipse43"
   style="fill:#ffffff;stroke:none;stroke-width:34;stroke-linecap:butt" />
				</g>
				<g
   id="shape2833-13"
   transform="translate(10.6402,-16.353)">
					<title
   id="title46">Sheet.2833</title>
					<path
   d="m 4.21,118.78 2.65,6.13 2.68,-7.88 2.22,4.49 2.75,-4.62 h 4.27 a 11.8261,11.7745 -180 0 0 -0.39,-1.55 h -4.61 l -1.79,3 -2.75,-5.21 -2.55,7.49 -2.32,-5.31 -2.85,5.17 H 0 a 8.51344,8.47633 -180 0 0 0.5,1.55 h 1.92 z"
   class="st5"
   id="path48"
   inkscape:connector-curvature="0"
   style="fill:#76bc2d;stroke:none;stroke-width:34;stroke-linecap:butt" />
				</g>
			</g>
		</g>
	</g>
</svg>

<?xml version="1.0" encoding="UTF-8" standalone="no"?>
<!DOCTYPE svg PUBLIC "-//W3C//DTD SVG 1.1//EN" "http://www.w3.org/Graphics/SVG/1.1/DTD/svg11.dtd">
<!-- Generated by Microsoft Visio, SVG Export Network Watcher.svg Page-1 -->
<svg xmlns="http://www.w3.org/2000/svg" xmlns:xlink="http://www.w3.org/1999/xlink" xmlns:ev="http://www.w3.org/2001/xml-events"
		width="1.72281in" height="1.7349in" viewBox="0 0 124.042 124.913" xml:space="preserve" color-interpolation-filters="sRGB"
		class="st6">
	<style type="text/css">
	<![CDATA[
		.st1 {fill:#198ab3;stroke:none;stroke-linecap:butt;stroke-width:34}
		.st2 {fill:url(#grad6-8);stroke:none;stroke-linecap:butt;stroke-width:34}
		.st3 {fill:#50e6ff;stroke:none;stroke-linecap:butt;stroke-width:34}
		.st4 {fill:#ffffff;stroke:none;stroke-linecap:butt;stroke-width:34}
		.st5 {fill:#76bc2d;stroke:none;stroke-linecap:butt;stroke-width:34}
		.st6 {fill:none;fill-rule:evenodd;font-size:12px;overflow:visible;stroke-linecap:square;stroke-miterlimit:3}
	]]>
	</style>

	<defs id="Patterns_And_Gradients">
		<radialGradient id="grad6-8" cx="1" cy="0" r="1.4">
			<stop offset="0" stop-color="#5ea0ef" stop-opacity="1"/>
			<stop offset="0.28" stop-color="#5b9fee" stop-opacity="1"/>
			<stop offset="0.47" stop-color="#529bec" stop-opacity="1"/>
			<stop offset="0.64" stop-color="#4394e7" stop-opacity="1"/>
			<stop offset="0.79" stop-color="#2d8be1" stop-opacity="1"/>
			<stop offset="0.93" stop-color="#117fd9" stop-opacity="1"/>
			<stop offset="1" stop-color="#0078d4" stop-opacity="1"/>
		</radialGradient>
	</defs>
	<g>
		<title>Page-1</title>
		<g id="group2801-1" transform="translate(33.1306,-34.0157)">
			<title>Network Watcher</title>
			<g id="group2802-2">
				<title>Icon-networking-66</title>
				<g id="shape2803-3" transform="translate(-85.1947,36.6162) rotate(-45)">
					<title>Sheet.2803</title>
					<path d="M0 122.83 A2.087 2.0779 -180 0 0 2.09 124.91 L17.42 124.91 A2.087 2.0779 -180 0 0 19.51 122.83 L19.51
								 122.57 A2.087 2.0779 -180 0 0 17.42 120.49 L2.09 120.49 A2.087 2.0779 -180 0 0 -0 122.57 L0 122.83
								 Z" class="st1"/>
				</g>
				<g id="shape2804-5" transform="translate(16.1392,-16.2735)">
					<title>Sheet.2804</title>
					<path d="M39.39 96.96 A21.3333 21.2403 -180 0 0 36.9 92.51 A20.6708 20.5807 -180 0 0 7.95 88.42 L7.75 88.59 A20.472
								 20.3828 -180 0 0 0.43 99.57 C0.43 100.29 0.1 101.02 0 101.75 A20.7039 20.6137 -180 0 0 6.26 119.75
								 A6.92338 6.89321 -180 0 0 6.99 120.41 L7.72 121.01 A19.0807 18.9975 -180 0 0 10.83 122.99 L11.16
								 123.18 L11.73 123.41 L12.19 123.65 L12.69 123.84 L13.22 124.04 L13.68 124.21 L14.34 124.4 L14.71
								 124.4 L15.67 124.67 L16.73 124.9 L16.99 124.9 A6.29398 6.26655 -180 0 0 17.82 124.9 L22.86 124.9
								 A16.8944 16.8207 -180 0 0 25.37 124.4 A20.5383 20.4487 -180 0 0 32.7 120.78 A21.0683 20.9765 -180
								 0 0 36.44 117.05 A20.8033 20.7126 -180 0 0 39.39 96.96 ZM34.58 93.9 L30.54 93.9 A19.6107 19.5253
								 -180 0 0 27.63 88.42 A17.6894 17.6123 0 0 1 34.68 93.9 L34.58 93.9 ZM21.63 87.3 A10.8323 10.7851
								 0 0 1 27.59 93.9 L21.63 93.9 L21.63 87.3 ZM21.63 96.67 L28.49 96.67 A30.5755 30.4422 0 0 1 29.58
								 103.63 L21.63 103.63 L21.63 96.67 ZM21.63 106.26 L29.58 106.26 A30.5755 30.4422 0 0 1 28.49 113.26
								 L21.73 113.26 L21.73 106.13 L21.63 106.26 ZM11.3 101.55 A28.9192 28.7932 0 0 1 12.22 96.53 L19.08
								 96.53 L19.08 103.49 L11.16 103.49 C11.2 102.83 11.23 102.17 11.3 101.55 ZM19.08 87.17 L19.08 93.76
								 L13.15 93.76 A10.6998 10.6531 0 0 1 19.08 87.17 ZM9.37 90.66 A19.3126 19.2284 0 0 1 13.02 88.55
								 A20.2732 20.1849 -180 0 0 10.1 94.06 L6.26 94.06 A18.8157 18.7337 0 0 1 9.37 90.66 ZM4.44 96.53
								 L9.57 96.53 A30.178 30.0465 -180 0 0 8.78 100.95 C8.78 101.78 8.61 102.64 8.61 103.49 L2.45 103.49
								 A21.3995 21.3063 0 0 1 2.95 101.02 A19.8757 19.7891 0 0 1 4.44 96.53 ZM2.45 106.13 L8.51 106.13
								 A30.973 30.838 -180 0 0 9.57 113.12 L4.44 113.12 A17.7556 17.6783 0 0 1 2.45 106.13 ZM6.26 115.83
								 L10.27 115.83 A19.6107 19.5253 -180 0 0 13.18 121.3 A17.59 17.5134 0 0 1 6.26 115.83 ZM19.15 122.43
								 A10.6998 10.6531 0 0 1 13.22 115.83 L19.15 115.83 L19.15 122.43 ZM19.15 113.06 L12.22 113.06 A30.6086
								 30.4752 0 0 1 11.16 106.07 L19.08 106.07 L19.08 113.12 L19.15 113.06 ZM24.22 121.04 A6.62524 6.59637
								 0 0 1 21.8 122.43 L21.8 115.83 L27.76 115.83 A14.708 14.6439 0 0 1 24.15 121.11 L24.22 121.04 ZM31.44
								 118.9 A17.1925 17.1176 0 0 1 27.63 121.14 A19.6107 19.5253 -180 0 0 30.54 115.66 L34.68 115.66 A17.7225
								 17.6453 0 0 1 31.44 118.9 ZM36.34 113.03 L31.37 113.03 A35.2463 35.0927 -180 0 0 32.33 106.03 L38.33
								 106.03 A17.4575 17.3814 0 0 1 36.34 113.12 L36.34 113.03 ZM32.33 103.49 A35.2463 35.0927 -180 0
								 0 31.37 96.53 L36.37 96.53 A18.3519 18.2719 0 0 1 38.36 103.49 L32.33 103.49 Z" class="st2"/>
				</g>
				<g id="shape2805-9" transform="translate(6.89694,-9.16299)">
					<title>Sheet.2805</title>
					<ellipse cx="13.383" cy="111.588" rx="13.383" ry="13.3247" class="st3"/>
				</g>
				<g id="shape2806-11" transform="translate(9.7458,-12.2633)">
					<title>Sheet.2806</title>
					<ellipse cx="10.501" cy="114.457" rx="10.501" ry="10.4552" class="st4"/>
				</g>
				<g id="shape2807-13" transform="translate(10.6402,-16.353)">
					<title>Sheet.2807</title>
					<path d="M4.21 118.78 L6.86 124.91 L9.54 117.03 L11.76 121.52 L14.51 116.9 L18.78 116.9 A11.8261 11.7745 -180
								 0 0 18.39 115.35 L13.78 115.35 L11.99 118.35 L9.24 113.14 L6.69 120.63 L4.37 115.32 L1.52 120.49
								 L0 120.49 A8.51344 8.47633 -180 0 0 0.5 122.04 L2.42 122.04 L4.21 118.78 Z" class="st5"/>
				</g>
			</g>
		</g>
	</g>
</svg>
